!!!COM: Claude Goudimel
!!!OMD: Psalm 105: Sus, qu'un chacun de nous
**kern	**kern	**kern	**kern
*part4	*part3	*part2	*part1
*staff4	*staff3	*staff2	*staff1
*clefF4	*clefGv2	*clefG2	*clefG2
*k[f#c#]	*k[f#c#]	*k[f#c#]	*k[f#c#]
!!LO:TX:omd:t=
*M4/4	*M4/4	*M4/4	*M4/4
=1	=1	=1	=1
2D	2F#	2A	2d
4BB	4B	4d	4f#
4E	4B	4e	4g
=2	=2	=2	=2
2D	2d	2f#	2a
2D	2f#	2a	2dd
=3	=3	=3	=3
4A	4e	4a	4cc#
4D	4f#	2a	4dd
2E	2e	.	2b
.	.	4g#X	.
=4	=4	=4	=4
2AA	2e	2a	2a
2r	2r	2r	2r
=5	=5	=5	=5
2D	2d	2f#	2a
4D	4f#	4a	4dd
4AA	4e	4a	4cc#
=6	=6	=6	=6
2E	2e	2g	2b
2AA	2c#	2e	2a
=7	=7	=7	=7
4BB	4B	4d	4f#
4BB	4F#	2d	4d
2AA	2A	.	2e
.	.	4c#	.
=8	=8	=8	=8
2D	2A	2d	2d
2r	2r	2r	2r
=9	=9	=9	=9
2GG	2B	2d	2g
4D	4A	4d	4f#
4E	4G	4B	4g
=10	=10	=10	=10
4D	4d	4f#	4a
4GG	4d	4g	2b
2D	2d	2f#	.
.	.	.	[4a
=11	=11	=11	=11
2E	2B	2e	4a]
.	.	.	4g#X
2AA	2c#	2e	2a
=12	=12	=12	=12
2r	2r	2r	2r
2D	2F#	2d	2a
=13	=13	=13	=13
4D	4A	4d	4f#
4E	4G	4B	4g
4D	4d	4f#	4a
4GG	4d	4g	[4b
=14	=14	=14	=14
2D	2d	2f#	4b]
.	.	.	2a
2E	2B	2e	.
.	.	.	4g#X
=15	=15	=15	=15
2AA	2c#	2e	2a
2r	2r	2r	2r
=16	=16	=16	=16
2D	2d	2f#	2a
4D	4f#	4a	4dd
4AA	4e	4a	4cc#
=17	=17	=17	=17
4BB	4d	4g	4b
4D	4d	2f#	4a
2E	2B	.	2g
.	.	[4e	.
=18	=18	=18	=18
2BB	2B	4e]	2f#
.	.	4e-X	.
2E	2B	2en	2e
=19	=19	=19	=19
2r	2r	2r	2r
2D	2F#	2d	2a
=20	=20	=20	=20
4D	4A	4d	4f#
4GG	4d	4g	4b
4D	4d	4f#	4a
4E	[4B	[4e	4g
=21	=21	=21	=21
8BB/L	4B]	4e]	2f#
8C#/J	.	.	.
4D	4A	2d	.
2AA	2A	.	2e
.	.	4c#	.
=22	=22	=22	=22
1D	1A	1d	1d
==	==	==	==
*-	*-	*-	*-
!!!software: music21 v.9.7.1
!!!software: music21 v.8.3.0
!!!RDF**kern: > = above
!!!RDF**kern: < = below
